static/assets/template/assets/img/icons/essential/detailed/Bike.svg

<svg height="95" viewBox="0 0 152 95" width="152" xmlns="http://www.w3.org/2000/svg"><g fill="none" fill-rule="evenodd" transform="translate(2 1)"><circle cx="27.5" cy="65.3" fill-rule="nonzero" r="27"/><circle cx="121.367156" cy="65.227664" fill-rule="nonzero" r="26.998679" transform="matrix(.99894889 -.04583787 .04583787 .99894889 -2.862327 5.631773)"/><circle cx="28.9" cy="66.7" fill-rule="nonzero" r="25.6"/><circle cx="123.166413" cy="66.826199" fill-rule="nonzero" r="25.398757" transform="matrix(.99894889 -.04583787 .04583787 .99894889 -2.933709 5.715927)"/><g stroke-linecap="round" stroke-linejoin="round" stroke-width="3"><path d="m43.6 16.5h53.2l23.3 48.8h-39.7l-39-41.4"/><path d="m26.7 65.8 2-3.1c.7-1.2 1.3-2.5 1.7-3.8l16.1-51.9h-18.5c-4.2 0-7.7 3.4-7.7 7.7 0 4.2 3.4 7.7 7.7 7.7h2.4"/><path d="m102.2.7-21.8 64.6-6.3 15.3"/><path d="m16.6 40.5c.2-.1.4-.2.6-.3"/><path d="m22.2 38.8c1.7-.3 3.4-.5 5.2-.5 14.9 0 27 12.1 27 27s-12.1 27-27 27-27-12.1-27-27c0-5.4 1.6-10.4 4.3-14.6"/><path d="m108.7 41.4c3.4-1.8 7.3-2.9 11.5-3.1 14.9-.7 27.6 10.9 28.3 25.8s-10.9 27.6-25.8 28.3-27.6-10.9-28.3-25.8c-.3-7.5 2.4-14.3 7-19.5"/><circle cx="80.6" cy="65.6" r="5.3"/><path d="m93.8.7h16.1"/><path d="m71 80.7h6.4"/></g></g></svg>

<?xml version="1.0" encoding="UTF-8"?>
<svg width="152px" height="95px" viewBox="0 0 152 95" version="1.1" xmlns="http://www.w3.org/2000/svg" xmlns:xlink="http://www.w3.org/1999/xlink">
    <!-- Generator: Sketch 51.2 (57519) - http://www.bohemiancoding.com/sketch -->
    <title>Bike</title>
    <desc>Created with Sketch.</desc>
    <defs></defs>
    <g id="Page-1" stroke="none" stroke-width="1" fill="none" fill-rule="evenodd">
        <g id="Bike" transform="translate(2.000000, 1.000000)">
            <circle id="Oval" class="fill-neutral" fill-rule="nonzero" cx="27.5" cy="65.3" r="27"></circle>
            <circle id="Oval" class="fill-neutral" fill-rule="nonzero" transform="translate(121.367156, 65.227663) rotate(-2.627237) translate(-121.367156, -65.227663) " cx="121.367156" cy="65.2276635" r="26.9986785"></circle>
            <circle id="Oval" class="fill-primary-100" fill-rule="nonzero" cx="28.9" cy="66.7" r="25.6"></circle>
            <circle id="Oval" class="fill-primary-100" fill-rule="nonzero" transform="translate(123.166413, 66.826199) rotate(-2.627237) translate(-123.166413, -66.826199) " cx="123.166413" cy="66.8261994" r="25.3987568"></circle>
            <polyline id="Shape" class="stroke-primary" stroke-width="3" stroke-linecap="round" stroke-linejoin="round" points="43.6 16.5 96.8 16.5 120.1 65.3 80.4 65.3 41.4 23.9"></polyline>
            <path d="M26.7,65.8 L28.7,62.7 C29.4,61.5 30,60.2 30.4,58.9 L46.5,7 L28,7 C23.8,7 20.3,10.4 20.3,14.7 C20.3,18.9 23.7,22.4 28,22.4 L30.4,22.4" id="Shape" class="stroke-primary" stroke-width="3" stroke-linecap="round" stroke-linejoin="round"></path>
            <polyline id="Shape" class="stroke-primary" stroke-width="3" stroke-linecap="round" stroke-linejoin="round" points="102.2 0.7 80.4 65.3 74.1 80.6"></polyline>
            <path d="M16.6,40.5 C16.8,40.4 17,40.3 17.2,40.2" id="Shape" class="stroke-primary" stroke-width="3" stroke-linecap="round" stroke-linejoin="round"></path>
            <path d="M22.2,38.8 C23.9,38.5 25.6,38.3 27.4,38.3 C42.3,38.3 54.4,50.4 54.4,65.3 C54.4,80.2 42.3,92.3 27.4,92.3 C12.5,92.3 0.4,80.2 0.4,65.3 C0.4,59.9 2,54.9 4.7,50.7" id="Shape" class="stroke-primary" stroke-width="3" stroke-linecap="round" stroke-linejoin="round"></path>
            <path d="M108.7,41.4 C112.1,39.6 116,38.5 120.2,38.3 C135.1,37.6 147.8,49.2 148.5,64.1 C149.2,79 137.6,91.7 122.7,92.4 C107.8,93.1 95.1,81.5 94.4,66.6 C94.1,59.1 96.8,52.3 101.4,47.1" id="Shape" class="stroke-primary" stroke-width="3" stroke-linecap="round" stroke-linejoin="round"></path>
            <circle id="Oval" class="stroke-primary" stroke-width="3" stroke-linecap="round" stroke-linejoin="round" cx="80.6" cy="65.6" r="5.3"></circle>
            <path d="M93.8,0.7 L109.9,0.7" id="Shape" class="stroke-primary" stroke-width="3" stroke-linecap="round" stroke-linejoin="round"></path>
            <path d="M71,80.7 L77.4,80.7" id="Shape" class="stroke-primary" stroke-width="3" stroke-linecap="round" stroke-linejoin="round"></path>
        </g>
    </g>
</svg>
